wordmark_dexcelerate.svg

<svg width="1136" height="68" viewBox="0 0 1136 68" fill="none" xmlns="http://www.w3.org/2000/svg">
<path d="M1027 2H952C950.895 2 950 2.89543 950 4V13C950 14.1046 950.895 15 952 15H981C982.105 15 983 15.8954 983 17V66C983 67.1046 983.895 68 985 68H994C995.105 68 996 67.1046 996 66V17C996 15.8954 996.895 15 998 15H1027C1028.1 15 1029 14.1046 1029 13V4C1029 2.89543 1028.1 2 1027 2Z" fill="black"/>
<path d="M187 2H111C109.895 2 109 2.89543 109 4V13.5C109 14.6046 109.895 15.5 111 15.5H187C188.105 15.5 189 14.6046 189 13.5V4C189 2.89543 188.105 2 187 2Z" fill="black"/>
<path d="M173 28H111C109.895 28 109 28.8954 109 30V66C109 67.1046 109.895 68 111 68H187C188.105 68 189 67.1046 189 66V56.5C189 55.3954 188.105 54.5 187 54.5H124.5C123.395 54.5 122.5 53.6046 122.5 52.5V43.5C122.5 42.3954 123.395 41.5 124.5 41.5H173C174.105 41.5 175 40.6046 175 39.5V30C175 28.8954 174.105 28 173 28Z" fill="black"/>
<path d="M506 2H430C428.895 2 428 2.89543 428 4V13.5C428 14.6046 428.895 15.5 430 15.5H506C507.105 15.5 508 14.6046 508 13.5V4C508 2.89543 507.105 2 506 2Z" fill="black"/>
<path d="M492 28H430C428.895 28 428 28.8954 428 30V66C428 67.1046 428.895 68 430 68H506C507.105 68 508 67.1046 508 66V56.5C508 55.3954 507.105 54.5 506 54.5H444C442.895 54.5 442 53.6046 442 52.5V43.5C442 42.3954 442.895 41.5 444 41.5H492C493.105 41.5 494 40.6046 494 39.5V30C494 28.8954 493.105 28 492 28Z" fill="black"/>
<path d="M712 2H636C634.895 2 634 2.89543 634 4V13.5C634 14.6046 634.895 15.5 636 15.5H712C713.105 15.5 714 14.6046 714 13.5V4C714 2.89543 713.105 2 712 2Z" fill="black"/>
<path d="M698 28H636C634.895 28 634 28.8954 634 30V66C634 67.1046 634.895 68 636 68H712C713.105 68 714 67.1046 714 66V56.5C714 55.3954 713.105 54.5 712 54.5H649.5C648.395 54.5 647.5 53.6046 647.5 52.5V43.5C647.5 42.3954 648.395 41.5 649.5 41.5H698C699.105 41.5 700 40.6046 700 39.5V30C700 28.8954 699.105 28 698 28Z" fill="black"/>
<path d="M1134 2H1058C1056.9 2 1056 2.89543 1056 4V13.5C1056 14.6046 1056.9 15.5 1058 15.5H1134C1135.1 15.5 1136 14.6046 1136 13.5V4C1136 2.89543 1135.1 2 1134 2Z" fill="black"/>
<path d="M1120 28H1058C1056.9 28 1056 28.8954 1056 30V66C1056 67.1046 1056.9 68 1058 68H1134C1135.1 68 1136 67.1046 1136 66V56.5C1136 55.3954 1135.1 54.5 1134 54.5H1071.5C1070.4 54.5 1069.5 53.6046 1069.5 52.5V43.5C1069.5 42.3954 1070.4 41.5 1071.5 41.5H1120C1121.1 41.5 1122 40.6046 1122 39.5V30C1122 28.8954 1121.1 28 1120 28Z" fill="black"/>
<path d="M227.825 2H216.775C215.41 2 214.446 3.33739 214.877 4.63246L214.939 4.81557C214.979 4.93823 215.032 5.05665 215.096 5.16914L231.441 34.014C231.788 34.6256 231.788 35.3744 231.441 35.986L215.096 64.8309C215.032 64.9434 214.979 65.0618 214.939 65.1844L214.877 65.3675C214.446 66.6626 215.41 68 216.775 68H227.345C228.06 68 228.72 67.6186 229.077 66.9994L242.923 43.0006C243.28 42.3814 243.94 42 244.655 42H264.864C265.568 42 266.221 42.3707 266.582 42.9759L280.918 67.0241C281.279 67.6293 281.932 68 282.636 68H294.225C295.59 68 296.554 66.6626 296.123 65.3675L296.065 65.1964C296.022 65.0658 295.965 64.9401 295.896 64.8211L279.088 36.0077C278.725 35.385 278.725 34.615 279.088 33.9923L295.896 5.17885C295.965 5.05994 296.022 4.93417 296.065 4.80357L296.123 4.63246C296.554 3.33739 295.59 2 294.225 2H283.118C282.423 2 281.778 2.36031 281.414 2.9518L266.586 27.0482C266.222 27.6397 265.577 28 264.882 28H244.675C243.949 28 243.281 27.6075 242.928 26.9741L229.572 3.02586C229.219 2.39253 228.551 2 227.825 2Z" fill="black"/>
<path d="M0 30V66C0 67.1046 0.895432 68 2 68H53C67.3594 68 79 56.3594 79 42V28C79 13.6406 67.3594 2 53 2H2C0.895432 2 0 2.89543 0 4V13.5C0 14.6046 0.895429 15.5 2 15.5H53.5C60.1274 15.5 65.5 20.8726 65.5 27.5V42.5C65.5 49.1274 60.1274 54.5 53.5 54.5H15.5C14.3954 54.5 13.5 53.6046 13.5 52.5V30C13.5 28.8954 12.6046 28 11.5 28H2C0.895431 28 0 28.8954 0 30Z" fill="black"/>
<path d="M398 2H346C331.641 2 320 13.6406 320 28V42C320 56.3594 331.641 68 346 68H398C399.105 68 400 67.1046 400 66V56.5C400 55.3954 399.105 54.5 398 54.5H346C339.373 54.5 334 49.1274 334 42.5V28C334 21.3726 339.373 16 346 16H398C399.105 16 400 15.1046 400 14V4C400 2.89543 399.105 2 398 2Z" fill="black"/>
<path d="M548 2H538C536.895 2 536 2.89543 536 4V45C536 57.7025 546.297 68 559 68H605C606.105 68 607 67.1046 607 66V56.5C607 55.3954 606.105 54.5 605 54.5H560C554.477 54.5 550 50.0228 550 44.5V4C550 2.89543 549.105 2 548 2Z" fill="black"/>
<path d="M802 2H745C743.895 2 743 2.89543 743 4V13.5C743 14.6046 743.895 15.5 745 15.5H802.5C805.814 15.5 808.5 18.1863 808.5 21.5V22C808.5 25.3137 805.814 28 802.5 28H745C743.895 28 743 28.8954 743 30V66C743 67.1046 743.895 68 745 68H754.5C755.605 68 756.5 67.1046 756.5 66V43C756.5 41.8954 757.395 41 758.5 41H792.36C793.067 41 793.721 41.3727 794.081 41.9804L808.919 67.0196C809.279 67.6273 809.933 68 810.64 68H822.434C823.996 68 824.955 66.2898 824.14 64.9571L810.583 42.7728C809.992 41.8048 810.323 40.5392 811.313 39.9849L812.283 39.4413C818.284 36.0811 822 29.7408 822 22.8636V22C822 10.9543 813.046 2 802 2Z" fill="black"/>
<path d="M888.644 17.1399L863.554 66.9004C863.214 67.5747 862.524 68 861.769 68H849.301C847.799 68 846.833 66.4058 847.528 65.0742L875.977 10.5978C883.118 -3.07609 902.716 -2.99015 909.737 10.7458L937.513 65.0898C938.193 66.4205 937.226 68 935.732 68H925.704C924.963 68 924.283 67.5905 923.937 66.9358L897.527 17.0515C895.628 13.4641 890.471 13.5154 888.644 17.1399Z" fill="black"/>
</svg>

<svg version="1.2" xmlns="http://www.w3.org/2000/svg" viewBox="0 0 1136 68" width="1136" height="68">
	<title>wordmark_dexcelerate-svg</title>
	<style>
		.s0 { fill: #ffffff } 
		.s1 { fill: #f6f6f6 } 
	</style>
	<path id="Layer" class="s0" d="m1027 2h-75c-1.1 0-2 0.9-2 2v9c0 1.1 0.9 2 2 2h29c1.1 0 2 0.9 2 2v49c0 1.1 0.9 2 2 2h9c1.1 0 2-0.9 2-2v-49c0-1.1 0.9-2 2-2h29c1.1 0 2-0.9 2-2v-9c0-1.1-0.9-2-2-2z"/>
	<path id="Layer" class="s0" d="m187 2h-76c-1.1 0-2 0.9-2 2v9.5c0 1.1 0.9 2 2 2h76c1.1 0 2-0.9 2-2v-9.5c0-1.1-0.9-2-2-2z"/>
	<path id="Layer" class="s0" d="m173 28h-62c-1.1 0-2 0.9-2 2v36c0 1.1 0.9 2 2 2h76c1.1 0 2-0.9 2-2v-9.5c0-1.1-0.9-2-2-2h-62.5c-1.1 0-2-0.9-2-2v-9c0-1.1 0.9-2 2-2h48.5c1.1 0 2-0.9 2-2v-9.5c0-1.1-0.9-2-2-2z"/>
	<path id="Layer" class="s0" d="m506 2h-76c-1.1 0-2 0.9-2 2v9.5c0 1.1 0.9 2 2 2h76c1.1 0 2-0.9 2-2v-9.5c0-1.1-0.9-2-2-2z"/>
	<path id="Layer" class="s0" d="m492 28h-62c-1.1 0-2 0.9-2 2v36c0 1.1 0.9 2 2 2h76c1.1 0 2-0.9 2-2v-9.5c0-1.1-0.9-2-2-2h-62c-1.1 0-2-0.9-2-2v-9c0-1.1 0.9-2 2-2h48c1.1 0 2-0.9 2-2v-9.5c0-1.1-0.9-2-2-2z"/>
	<path id="Layer" class="s0" d="m712 2h-76c-1.1 0-2 0.9-2 2v9.5c0 1.1 0.9 2 2 2h76c1.1 0 2-0.9 2-2v-9.5c0-1.1-0.9-2-2-2z"/>
	<path id="Layer" class="s0" d="m698 28h-62c-1.1 0-2 0.9-2 2v36c0 1.1 0.9 2 2 2h76c1.1 0 2-0.9 2-2v-9.5c0-1.1-0.9-2-2-2h-62.5c-1.1 0-2-0.9-2-2v-9c0-1.1 0.9-2 2-2h48.5c1.1 0 2-0.9 2-2v-9.5c0-1.1-0.9-2-2-2z"/>
	<path id="Layer" class="s0" d="m1134 2h-76c-1.1 0-2 0.9-2 2v9.5c0 1.1 0.9 2 2 2h76c1.1 0 2-0.9 2-2v-9.5c0-1.1-0.9-2-2-2z"/>
	<path id="Layer" class="s0" d="m1120 28h-62c-1.1 0-2 0.9-2 2v36c0 1.1 0.9 2 2 2h76c1.1 0 2-0.9 2-2v-9.5c0-1.1-0.9-2-2-2h-62.5c-1.1 0-2-0.9-2-2v-9c0-1.1 0.9-2 2-2h48.5c1.1 0 2-0.9 2-2v-9.5c0-1.1-0.9-2-2-2z"/>
	<path id="Layer" class="s0" d="m227.8 2h-11c-1.4 0-2.4 1.3-1.9 2.6v0.2q0.1 0.2 0.2 0.4l16.3 28.8c0.4 0.6 0.4 1.4 0 2l-16.3 28.8q-0.1 0.2-0.2 0.4v0.2c-0.5 1.3 0.5 2.6 1.9 2.6h10.5c0.8 0 1.4-0.4 1.8-1l13.8-24c0.4-0.6 1-1 1.8-1h20.2c0.7 0 1.3 0.4 1.7 1l14.3 24c0.4 0.6 1 1 1.7 1h11.6c1.4 0 2.4-1.3 1.9-2.6v-0.2q-0.1-0.2-0.2-0.4l-16.8-28.8c-0.4-0.6-0.4-1.4 0-2l16.8-28.8q0.1-0.2 0.2-0.4v-0.2c0.5-1.3-0.5-2.6-1.9-2.6h-11.1c-0.7 0-1.3 0.4-1.7 1l-14.8 24c-0.4 0.6-1 1-1.7 1h-20.2c-0.8 0-1.4-0.4-1.8-1l-13.3-24c-0.4-0.6-1-1-1.8-1z"/>
	<path id="Layer" class="s0" d="m0 30v36c0 1.1 0.9 2 2 2h51c14.4 0 26-11.6 26-26v-14c0-14.4-11.6-26-26-26h-51c-1.1 0-2 0.9-2 2v9.5c0 1.1 0.9 2 2 2h51.5c6.6 0 12 5.4 12 12v15c0 6.6-5.4 12-12 12h-38c-1.1 0-2-0.9-2-2v-22.5c0-1.1-0.9-2-2-2h-9.5c-1.1 0-2 0.9-2 2z"/>
	<path id="Layer" class="s1" d="m398 2h-52c-14.4 0-26 11.6-26 26v14c0 14.4 11.6 26 26 26h52c1.1 0 2-0.9 2-2v-9.5c0-1.1-0.9-2-2-2h-52c-6.6 0-12-5.4-12-12v-14.5c0-6.6 5.4-12 12-12h52c1.1 0 2-0.9 2-2v-10c0-1.1-0.9-2-2-2z"/>
	<path id="Layer" class="s0" d="m548 2h-10c-1.1 0-2 0.9-2 2v41c0 12.7 10.3 23 23 23h46c1.1 0 2-0.9 2-2v-9.5c0-1.1-0.9-2-2-2h-45c-5.5 0-10-4.5-10-10v-40.5c0-1.1-0.9-2-2-2z"/>
	<path id="Layer" class="s0" d="m802 2h-57c-1.1 0-2 0.9-2 2v9.5c0 1.1 0.9 2 2 2h57.5c3.3 0 6 2.7 6 6v0.5c0 3.3-2.7 6-6 6h-57.5c-1.1 0-2 0.9-2 2v36c0 1.1 0.9 2 2 2h9.5c1.1 0 2-0.9 2-2v-23c0-1.1 0.9-2 2-2h33.9c0.7 0 1.3 0.4 1.7 1l14.8 25c0.4 0.6 1 1 1.7 1h11.8c1.6 0 2.6-1.7 1.7-3l-13.5-22.2c-0.6-1-0.3-2.3 0.7-2.8l1-0.6c6-3.3 9.7-9.7 9.7-16.5v-0.9c0-11-9-20-20-20z"/>
	<path id="Layer" class="s0" d="m888.6 17.1l-25 49.8c-0.4 0.7-1.1 1.1-1.8 1.1h-12.5c-1.5 0-2.5-1.6-1.8-2.9l28.5-54.5c7.1-13.7 26.7-13.6 33.7 0.1l27.8 54.4c0.7 1.3-0.3 2.9-1.8 2.9h-10c-0.7 0-1.4-0.4-1.8-1.1l-26.4-49.8c-1.9-3.6-7-3.6-8.9 0z"/>
</svg>
